X:2016 
T:Jenny is all the go 
C:Charles Clague, Coachman
O:Isle of Man
S:Traditional 
Z:Clague collection
B:Kiaull Vannin #16 
M:6/8 
Q:160 
K:D 
f3 f3|f3 f3|e2f e2c|A6|e3 e3|e3 c3|B2c d2e|f6| 
B2c d2e|f3 b3|a2g f2e|(a3 c3)|d2e d2c|B2c d2e|f2f e2c|B6|| 
